; G-Code generated by Simplify3D(R) Version 4.1.2
; Sep 9, 2020 at 4:47:23 PM
; Settings Summary
;   processName,PLA/Medium/3.00
;   applyToModels,3D_Printer_test_stl
;   profileName,LulzBot TAZ 6 Single (modified)
;   profileVersion,2016-06-08 08:00:00
;   baseProfile,
;   printMaterial,PLA
;   printQuality,Medium
;   printExtruders,
;   extruderName,Primary Extruder
;   extruderToolheadNumber,0
;   extruderDiameter,0.5
;   extruderAutoWidth,0
;   extruderWidth,0.5
;   extrusionMultiplier,0.9
;   extruderUseRetract,1
;   extruderRetractionDistance,1.5
;   extruderExtraRestartDistance,0
;   extruderRetractionZLift,0
;   extruderRetractionSpeed,1800
;   extruderUseCoasting,0
;   extruderCoastingDistance,0.2
;   extruderUseWipe,0
;   extruderWipeDistance,5
;   primaryExtruder,0
;   layerHeight,0.2
;   topSolidLayers,3
;   bottomSolidLayers,3
;   perimeterOutlines,3
;   printPerimetersInsideOut,1
;   startPointOption,2
;   startPointOriginX,0
;   startPointOriginY,0
;   sequentialIslands,0
;   spiralVaseMode,0
;   firstLayerHeightPercentage,90
;   firstLayerWidthPercentage,100
;   firstLayerUnderspeed,0.25
;   useRaft,0
;   raftExtruder,0
;   raftTopLayers,3
;   raftBaseLayers,2
;   raftOffset,3
;   raftSeparationDistance,0.14
;   raftTopInfill,100
;   aboveRaftSpeedMultiplier,0.3
;   useSkirt,1
;   skirtExtruder,0
;   skirtLayers,1
;   skirtOutlines,2
;   skirtOffset,6
;   usePrimePillar,0
;   primePillarExtruder,999
;   primePillarWidth,12
;   primePillarLocation,7
;   primePillarSpeedMultiplier,1
;   useOozeShield,0
;   oozeShieldExtruder,999
;   oozeShieldOffset,2
;   oozeShieldOutlines,1
;   oozeShieldSidewallShape,1
;   oozeShieldSidewallAngle,30
;   oozeShieldSpeedMultiplier,1
;   infillExtruder,0
;   internalInfillPattern,Rectilinear
;   externalInfillPattern,Rectilinear
;   infillPercentage,20
;   outlineOverlapPercentage,15
;   infillExtrusionWidthPercentage,200
;   minInfillLength,5
;   infillLayerInterval,1
;   internalInfillAngles,45,-45
;   overlapInternalInfillAngles,0
;   externalInfillAngles,45,-45
;   generateSupport,0
;   supportExtruder,0
;   supportInfillPercentage,30
;   supportExtraInflation,0
;   supportBaseLayers,0
;   denseSupportExtruder,0
;   denseSupportLayers,0
;   denseSupportInfillPercentage,70
;   supportLayerInterval,1
;   supportHorizontalPartOffset,0.3
;   supportUpperSeparationLayers,1
;   supportLowerSeparationLayers,1
;   supportType,0
;   supportGridSpacing,4
;   maxOverhangAngle,45
;   supportAngles,0
;   temperatureName,Primary Extruder,Heated Bed
;   temperatureNumber,0,0
;   temperatureSetpointCount,1,1
;   temperatureSetpointLayers,1,1
;   temperatureSetpointTemperatures,205,60
;   temperatureStabilizeAtStartup,1,1
;   temperatureHeatedBed,0,1
;   fanLayers,1,2
;   fanSpeeds,0,100
;   blipFanToFullPower,1
;   adjustSpeedForCooling,1
;   minSpeedLayerTime,15
;   minCoolingSpeedSlowdown,20
;   increaseFanForCooling,0
;   minFanLayerTime,45
;   maxCoolingFanSpeed,100
;   increaseFanForBridging,0
;   bridgingFanSpeed,100
;   use5D,1
;   relativeEdistances,0
;   allowEaxisZeroing,1
;   independentExtruderAxes,0
;   includeM10123,0
;   stickySupport,1
;   applyToolheadOffsets,0
;   gcodeXoffset,0
;   gcodeYoffset,0
;   gcodeZoffset,0
;   overrideMachineDefinition,1
;   machineTypeOverride,0
;   strokeXoverride,280
;   strokeYoverride,280
;   strokeZoverride,250
;   originOffsetXoverride,0
;   originOffsetYoverride,0
;   originOffsetZoverride,0
;   homeXdirOverride,-1
;   homeYdirOverride,-1
;   homeZdirOverride,-1
;   flipXoverride,1
;   flipYoverride,-1
;   flipZoverride,1
;   toolheadOffsets,0,0|0,0|0,0|0,0|0,0|0,0
;   overrideFirmwareConfiguration,1
;   firmwareTypeOverride,RepRap (Marlin/Repetier/Sprinter)
;   GPXconfigOverride,r2
;   baudRateOverride,250000
;   overridePrinterModels,1
;   printerModelsOverride,LulzBot_TAZ6.stl
;   startingGcode,G26 ; clear probe fail condition,M140 S[bed0_temperature] ; start heating bed,M104 S170 ; start heating extruder,G28 XY ; home X and Y,G1 X-19 Y258 F1000 ; move to safe homing position,M109 S170 ; soften filament for Z homing,G28 Z ; home Z,G92 E0 ; zero extruder,G1 E-12 F100 ; retract 12mm filament,G1 X-15 Y100 F3000 ; move above wiper pad,G1 Z1 ; push nozzle into wiper,G1 X-17 Y95 F1000 ; slow wipe,G1 X-17 Y90 F1000 ; slow wipe,G1 X-17 Y85 F1000 ; slow wipe,G1 X-15 Y90 F1000 ; slow wipe,G1 X-17 Y80 F1000 ; slow wipe,G1 X-15 Y95 F1000 ; slow wipe,G1 X-17 Y75 F2000 ; fast wipe,G1 X-15 Y65 F2000 ; fast wipe,G1 X-17 Y70 F2000 ; fast wipe,G1 X-15 Y60 F2000 ; fast wipe,G1 X-17 Y55 F2000 ; fast wipe,G1 X-15 Y50 F2000 ; fast wipe,G1 X-17 Y40 F2000 ; fast wipe,G1 X-15 Y45 F2000 ; fast wipe,G1 X-17 Y35 F2000 ; fast wipe,G1 X-15 Y40 F2000 ; fast wipe,G1 X-17 Y70 F2000 ; fast wipe,G1 X-15 Y30 Z2 F2000 ; fast wipe,G1 X-17 Y35 F2000 ; fast wipe,G1 X-15 Y25 F2000 ; fast wipe,G1 X-17 Y30 F2000 ; fast wipe,G1 X-15 Y25 Z1.5 F1000 ; slow wipe,G1 X-17 Y23 F1000 ; slow wipe,G1 Z10 ; raise extruder,G1 X-9 Y-9 ; move above first probe point,M204 S100 ; set accel for probing,G29 ; probe sequence (for auto-leveling),M204 S500 ; set accel back to normal,G1 X0 Y0 Z15 F5000 ; get out of the way,M400 ; clear buffer,M117 Heating...,M104 S[extruder0_temperature] ; start heating extruder,M190 S[bed0_temperature] ; stabilize bed,M109 S[extruder0_temperature] ; stabilize extruder,G1 Z2 E0 F75 ; extrude filament back into nozzle,M117 TAZ Printing...
;   layerChangeGcode,
;   retractionGcode,
;   toolChangeGcode,
;   endingGcode,M400 ; wait for moves to finish,M104 S0 ; turn off extruder,M107 ; turn off fan,G1 Y0 F3000 ; move to cooling position,M117 Cooling please wait,M190 S50 ; cool down bed,G1 Y280 F3000 ; present finished print,M140 S0 ; turn off bed,M84 ; disable motors,M117 Print complete
;   exportFileFormat,gcode
;   celebration,0
;   celebrationSong,Random Song
;   postProcessing,Z:\3d-models\taz-6-gcode\update-git.bat
;   defaultSpeed,3600
;   outlineUnderspeed,0.5
;   solidInfillUnderspeed,0.8
;   supportUnderspeed,0.8
;   rapidXYspeed,4800
;   rapidZspeed,1000
;   minBridgingArea,50
;   bridgingExtraInflation,0
;   bridgingExtrusionMultiplier,1
;   bridgingSpeedMultiplier,1
;   useFixedBridgingAngle,0
;   fixedBridgingAngle,0
;   applyBridgingToPerimeters,0
;   filamentDiameters,3|2.85|2.85|2.85|2.85|2.85
;   filamentPricesPerKg,46|46|46|46|46|46
;   filamentDensities,1.25|1.25|1.25|1.25|1.25|1.25
;   useMinPrintHeight,0
;   minPrintHeight,0
;   useMaxPrintHeight,0
;   maxPrintHeight,0
;   useDiaphragm,0
;   diaphragmLayerInterval,20
;   robustSlicing,1
;   mergeAllIntoSolid,0
;   onlyRetractWhenCrossingOutline,1
;   retractBetweenLayers,1
;   useRetractionMinTravel,0
;   retractionMinTravel,3
;   retractWhileWiping,0
;   onlyWipeOutlines,1
;   avoidCrossingOutline,0
;   maxMovementDetourFactor,3
;   toolChangeRetractionDistance,12
;   toolChangeExtraRestartDistance,-0.5
;   toolChangeRetractionSpeed,600
;   externalThinWallType,0
;   internalThinWallType,2
;   thinWallAllowedOverlapPercentage,10
;   singleExtrusionMinLength,1
;   singleExtrusionMinPrintingWidthPercentage,50
;   singleExtrusionMaxPrintingWidthPercentage,200
;   singleExtrusionEndpointExtension,0.2
;   horizontalSizeCompensation,0
G90
M82
M106 S0
G26 ; clear probe fail condition
M140 S60 ; start heating bed
M104 S170 ; start heating extruder
G28 XY ; home X and Y
G1 X-19 Y258 F1000 ; move to safe homing position
M109 S170 ; soften filament for Z homing
G28 Z ; home Z
G92 E0 ; zero extruder
G1 E-12 F100 ; retract 12mm filament
G1 X-15 Y100 F3000 ; move above wiper pad
G1 Z1 ; push nozzle into wiper
G1 X-17 Y95 F1000 ; slow wipe
G1 X-17 Y90 F1000 ; slow wipe
G1 X-17 Y85 F1000 ; slow wipe
G1 X-15 Y90 F1000 ; slow wipe
G1 X-17 Y80 F1000 ; slow wipe
G1 X-15 Y95 F1000 ; slow wipe
G1 X-17 Y75 F2000 ; fast wipe
G1 X-15 Y65 F2000 ; fast wipe
G1 X-17 Y70 F2000 ; fast wipe
G1 X-15 Y60 F2000 ; fast wipe
G1 X-17 Y55 F2000 ; fast wipe
G1 X-15 Y50 F2000 ; fast wipe
G1 X-17 Y40 F2000 ; fast wipe
G1 X-15 Y45 F2000 ; fast wipe
G1 X-17 Y35 F2000 ; fast wipe
G1 X-15 Y40 F2000 ; fast wipe
G1 X-17 Y70 F2000 ; fast wipe
G1 X-15 Y30 Z2 F2000 ; fast wipe
G1 X-17 Y35 F2000 ; fast wipe
G1 X-15 Y25 F2000 ; fast wipe
G1 X-17 Y30 F2000 ; fast wipe
G1 X-15 Y25 Z1.5 F1000 ; slow wipe
G1 X-17 Y23 F1000 ; slow wipe
G1 Z10 ; raise extruder
G1 X-9 Y-9 ; move above first probe point
M204 S100 ; set accel for probing
G29 ; probe sequence (for auto-leveling)
M204 S500 ; set accel back to normal
G1 X0 Y0 Z15 F5000 ; get out of the way
M400 ; clear buffer
M117 Heating...
M104 S205 ; start heating extruder
M190 S60 ; stabilize bed
M109 S205 ; stabilize extruder
G1 Z2 E0 F75 ; extrude filament back into nozzle
M117 TAZ Printing...
; process PLA/Medium/3.00
; layer 1, Z = 0.180
T0
G92 E0.0000
G1 E-1.5000 F1800
; feature skirt
; tool H0.180 W0.500
G1 Z0.180 F1000
G1 X87.204 Y102.989 F4800
G1 E0.0000 F1800
G92 E0.0000
G1 X192.796 Y102.989 E1.2100 F900
G1 X196.750 Y106.943 E1.2741
G1 X196.750 Y115.535 E1.3725
G1 X192.796 Y119.489 E1.4366
G1 X87.204 Y119.489 E2.6466
G1 X83.250 Y115.535 E2.7107
G1 X83.250 Y106.943 E2.8091
G1 X87.204 Y102.989 E2.8732
G92 E0.0000
G1 E-1.5000 F1800
G1 X87.411 Y103.489 F4800
G1 E0.0000 F1800
G92 E0.0000
G1 X192.589 Y103.489 E1.2052 F900
G1 X196.250 Y107.150 E1.2646
G1 X196.250 Y115.328 E1.3583
G1 X192.589 Y118.989 E1.4176
G1 X87.411 Y118.989 E2.6229
G1 X83.750 Y115.328 E2.6822
G1 X83.750 Y107.150 E2.7759
G1 X87.411 Y103.489 E2.8352
G92 E0.0000
G1 E-1.5000 F1800
; feature inner perimeter
G1 X91.250 Y110.989 F4800
G1 E0.0000 F1800
G92 E0.0000
G1 X188.750 Y110.989 E1.1173 F675
G1 X188.750 Y111.489 E1.1230
G1 X91.250 Y111.489 E2.2403
G1 X91.250 Y110.989 E2.2460
G1 X90.750 Y110.489 F4800
G92 E0.0000
G1 X189.250 Y110.489 E1.1287 F675
G1 X189.250 Y111.989 E1.1459
G1 X90.750 Y111.989 E2.2746
G1 X90.750 Y110.489 E2.2918
; feature outer perimeter
G1 X90.250 Y109.989 F4800
G92 E0.0000
G1 X189.750 Y109.989 E1.1402 F450
G1 X189.750 Y112.489 E1.1688
G1 X90.250 Y112.489 E2.3090
G1 X90.250 Y109.989 E2.3377
G92 E0.0000
G1 E-1.5000 F1800
; layer 2, Z = 0.380
M106 S255
; feature inner perimeter
; tool H0.200 W0.500
G1 Z0.380 F1000
G1 X91.250 Y110.989 F4800
G1 E0.0000 F1800
G92 E0.0000
G1 X188.750 Y110.989 E1.2414 F2700
G1 X188.750 Y111.489 E1.2478
G1 X91.250 Y111.489 E2.4892
G1 X91.250 Y110.989 E2.4955
G1 X90.750 Y110.489 F4800
G92 E0.0000
G1 X189.250 Y110.489 E1.2541 F2700
G1 X189.250 Y111.989 E1.2732
G1 X90.750 Y111.989 E2.5274
G1 X90.750 Y110.489 E2.5465
; feature outer perimeter
G1 X90.250 Y109.989 F4800
G92 E0.0000
G1 X189.750 Y109.989 E1.2669 F1800
G1 X189.750 Y112.489 E1.2987
G1 X90.250 Y112.489 E2.5656
G1 X90.250 Y109.989 E2.5974
G92 E0.0000
G1 E-1.5000 F1800
; layer 3, Z = 0.580
; feature inner perimeter
G1 Z0.580 F1000
G1 X91.250 Y110.989 F4800
G1 E0.0000 F1800
G92 E0.0000
G1 X188.750 Y110.989 E1.2414 F2700
G1 X188.750 Y111.489 E1.2478
G1 X91.250 Y111.489 E2.4892
G1 X91.250 Y110.989 E2.4955
G1 X90.750 Y110.489 F4800
G92 E0.0000
G1 X189.250 Y110.489 E1.2541 F2700
G1 X189.250 Y111.989 E1.2732
G1 X90.750 Y111.989 E2.5274
G1 X90.750 Y110.489 E2.5465
; feature outer perimeter
G1 X90.250 Y109.989 F4800
G92 E0.0000
G1 X189.750 Y109.989 E1.2669 F1800
G1 X189.750 Y112.489 E1.2987
G1 X90.250 Y112.489 E2.5656
G1 X90.250 Y109.989 E2.5974
G92 E0.0000
G1 E-1.5000 F1800
; layer 4, Z = 0.780
; feature inner perimeter
G1 Z0.780 F1000
G1 X91.250 Y110.989 F4800
G1 E0.0000 F1800
G92 E0.0000
G1 X188.750 Y110.989 E1.2414 F2700
G1 X188.750 Y111.489 E1.2478
G1 X91.250 Y111.489 E2.4892
G1 X91.250 Y110.989 E2.4955
G1 X90.750 Y110.489 F4800
G92 E0.0000
G1 X189.250 Y110.489 E1.2541 F2700
G1 X189.250 Y111.989 E1.2732
G1 X90.750 Y111.989 E2.5274
G1 X90.750 Y110.489 E2.5465
; feature outer perimeter
G1 X90.250 Y109.989 F4800
G92 E0.0000
G1 X189.750 Y109.989 E1.2669 F1800
G1 X189.750 Y112.489 E1.2987
G1 X90.250 Y112.489 E2.5656
G1 X90.250 Y109.989 E2.5974
G92 E0.0000
G1 E-1.5000 F1800
; layer 5, Z = 0.980
; feature inner perimeter
G1 Z0.980 F1000
G1 X91.250 Y110.989 F4800
G1 E0.0000 F1800
G92 E0.0000
G1 X188.750 Y110.989 E1.2414 F2700
G1 X188.750 Y111.489 E1.2478
G1 X91.250 Y111.489 E2.4892
G1 X91.250 Y110.989 E2.4955
G1 X90.750 Y110.489 F4800
G92 E0.0000
G1 X189.250 Y110.489 E1.2541 F2700
G1 X189.250 Y111.989 E1.2732
G1 X90.750 Y111.989 E2.5274
G1 X90.750 Y110.489 E2.5465
; feature outer perimeter
G1 X90.250 Y109.989 F4800
G92 E0.0000
G1 X189.750 Y109.989 E1.2669 F1800
G1 X189.750 Y112.489 E1.2987
G1 X90.250 Y112.489 E2.5656
G1 X90.250 Y109.989 E2.5974
G92 E0.0000
G1 E-1.5000 F1800
; layer 6, Z = 1.180
; feature inner perimeter
G1 Z1.180 F1000
G1 X91.250 Y110.989 F4800
G1 E0.0000 F1800
G92 E0.0000
G1 X188.750 Y110.989 E1.2414 F2700
G1 X188.750 Y111.489 E1.2478
G1 X91.250 Y111.489 E2.4892
G1 X91.250 Y110.989 E2.4955
G1 X90.750 Y110.489 F4800
G92 E0.0000
G1 X189.250 Y110.489 E1.2541 F2700
G1 X189.250 Y111.989 E1.2732
G1 X90.750 Y111.989 E2.5274
G1 X90.750 Y110.489 E2.5465
; feature outer perimeter
G1 X90.250 Y109.989 F4800
G92 E0.0000
G1 X189.750 Y109.989 E1.2669 F1800
G1 X189.750 Y112.489 E1.2987
G1 X90.250 Y112.489 E2.5656
G1 X90.250 Y109.989 E2.5974
G92 E0.0000
G1 E-1.5000 F1800
; layer 7, Z = 1.380
; feature inner perimeter
G1 Z1.380 F1000
G1 X91.250 Y110.989 F4800
G1 E0.0000 F1800
G92 E0.0000
G1 X188.750 Y110.989 E1.2414 F2700
G1 X188.750 Y111.489 E1.2478
G1 X91.250 Y111.489 E2.4892
G1 X91.250 Y110.989 E2.4955
G1 X90.750 Y110.489 F4800
G92 E0.0000
G1 X189.250 Y110.489 E1.2541 F2700
G1 X189.250 Y111.989 E1.2732
G1 X90.750 Y111.989 E2.5274
G1 X90.750 Y110.489 E2.5465
; feature outer perimeter
G1 X90.250 Y109.989 F4800
G92 E0.0000
G1 X189.750 Y109.989 E1.2669 F1800
G1 X189.750 Y112.489 E1.2987
G1 X90.250 Y112.489 E2.5656
G1 X90.250 Y109.989 E2.5974
G92 E0.0000
G1 E-1.5000 F1800
; layer 8, Z = 1.580
; feature inner perimeter
G1 Z1.580 F1000
G1 X91.250 Y110.989 F4800
G1 E0.0000 F1800
G92 E0.0000
G1 X188.750 Y110.989 E1.2414 F2700
G1 X188.750 Y111.489 E1.2478
G1 X91.250 Y111.489 E2.4892
G1 X91.250 Y110.989 E2.4955
G1 X90.750 Y110.489 F4800
G92 E0.0000
G1 X189.250 Y110.489 E1.2541 F2700
G1 X189.250 Y111.989 E1.2732
G1 X90.750 Y111.989 E2.5274
G1 X90.750 Y110.489 E2.5465
; feature outer perimeter
G1 X90.250 Y109.989 F4800
G92 E0.0000
G1 X189.750 Y109.989 E1.2669 F1800
G1 X189.750 Y112.489 E1.2987
G1 X90.250 Y112.489 E2.5656
G1 X90.250 Y109.989 E2.5974
G92 E0.0000
G1 E-1.5000 F1800
; layer 9, Z = 1.780
; feature inner perimeter
G1 Z1.780 F1000
G1 X91.250 Y110.989 F4800
G1 E0.0000 F1800
G92 E0.0000
G1 X188.750 Y110.989 E1.2414 F2700
G1 X188.750 Y111.489 E1.2478
G1 X91.250 Y111.489 E2.4892
G1 X91.250 Y110.989 E2.4955
G1 X90.750 Y110.489 F4800
G92 E0.0000
G1 X189.250 Y110.489 E1.2541 F2700
G1 X189.250 Y111.989 E1.2732
G1 X90.750 Y111.989 E2.5274
G1 X90.750 Y110.489 E2.5465
; feature outer perimeter
G1 X90.250 Y109.989 F4800
G92 E0.0000
G1 X189.750 Y109.989 E1.2669 F1800
G1 X189.750 Y112.489 E1.2987
G1 X90.250 Y112.489 E2.5656
G1 X90.250 Y109.989 E2.5974
G92 E0.0000
G1 E-1.5000 F1800
; layer 10, Z = 1.980
; feature inner perimeter
G1 Z1.980 F1000
G1 X91.250 Y110.989 F4800
G1 E0.0000 F1800
G92 E0.0000
G1 X188.750 Y110.989 E1.2414 F2700
G1 X188.750 Y111.489 E1.2478
G1 X91.250 Y111.489 E2.4892
G1 X91.250 Y110.989 E2.4955
G1 X90.750 Y110.489 F4800
G92 E0.0000
G1 X189.250 Y110.489 E1.2541 F2700
G1 X189.250 Y111.989 E1.2732
G1 X90.750 Y111.989 E2.5274
G1 X90.750 Y110.489 E2.5465
; feature outer perimeter
G1 X90.250 Y109.989 F4800
G92 E0.0000
G1 X189.750 Y109.989 E1.2669 F1800
G1 X189.750 Y112.489 E1.2987
G1 X90.250 Y112.489 E2.5656
G1 X90.250 Y109.989 E2.5974
G92 E0.0000
G1 E-1.5000 F1800
; layer 11, Z = 2.180
; feature inner perimeter
G1 Z2.180 F1000
G1 X91.250 Y110.989 F4800
G1 E0.0000 F1800
G92 E0.0000
G1 X188.750 Y110.989 E1.2414 F2700
G1 X188.750 Y111.489 E1.2478
G1 X91.250 Y111.489 E2.4892
G1 X91.250 Y110.989 E2.4955
G1 X90.750 Y110.489 F4800
G92 E0.0000
G1 X189.250 Y110.489 E1.2541 F2700
G1 X189.250 Y111.989 E1.2732
G1 X90.750 Y111.989 E2.5274
G1 X90.750 Y110.489 E2.5465
; feature outer perimeter
G1 X90.250 Y109.989 F4800
