; G-Code generated by Simplify3D(R) Version 4.1.2
; Sep 9, 2020 at 2:25:24 PM
; Settings Summary
;   processName,PLA/Medium/3.00
;   applyToModels,TAZ6_fanCover2,TAZ6_fanCover2(2),TAZ6_fanCover2(3)
;   profileName,LulzBot TAZ 6 Single
;   profileVersion,2016-06-08 08:00:00
;   baseProfile,
;   printMaterial,PLA
;   printQuality,Medium
;   printExtruders,
;   extruderName,Primary Extruder
;   extruderToolheadNumber,0
;   extruderDiameter,0.5
;   extruderAutoWidth,0
;   extruderWidth,0.5
;   extrusionMultiplier,0.9
;   extruderUseRetract,1
;   extruderRetractionDistance,1.5
;   extruderExtraRestartDistance,0
;   extruderRetractionZLift,0
;   extruderRetractionSpeed,1800
;   extruderUseCoasting,0
;   extruderCoastingDistance,0.2
;   extruderUseWipe,0
;   extruderWipeDistance,5
;   primaryExtruder,0
;   layerHeight,0.2
;   topSolidLayers,3
;   bottomSolidLayers,3
;   perimeterOutlines,3
;   printPerimetersInsideOut,1
;   startPointOption,2
;   startPointOriginX,0
;   startPointOriginY,0
;   sequentialIslands,0
;   spiralVaseMode,0
;   firstLayerHeightPercentage,90
;   firstLayerWidthPercentage,100
;   firstLayerUnderspeed,0.25
;   useRaft,0
;   raftExtruder,0
;   raftTopLayers,3
;   raftBaseLayers,2
;   raftOffset,3
;   raftSeparationDistance,0.14
;   raftTopInfill,100
;   aboveRaftSpeedMultiplier,0.3
;   useSkirt,1
;   skirtExtruder,0
;   skirtLayers,1
;   skirtOutlines,2
;   skirtOffset,6
;   usePrimePillar,0
;   primePillarExtruder,999
;   primePillarWidth,12
;   primePillarLocation,7
;   primePillarSpeedMultiplier,1
;   useOozeShield,0
;   oozeShieldExtruder,999
;   oozeShieldOffset,2
;   oozeShieldOutlines,1
;   oozeShieldSidewallShape,1
;   oozeShieldSidewallAngle,30
;   oozeShieldSpeedMultiplier,1
;   infillExtruder,0
;   internalInfillPattern,Rectilinear
;   externalInfillPattern,Rectilinear
;   infillPercentage,20
;   outlineOverlapPercentage,15
;   infillExtrusionWidthPercentage,200
;   minInfillLength,5
;   infillLayerInterval,1
;   internalInfillAngles,45,-45
;   overlapInternalInfillAngles,0
;   externalInfillAngles,45,-45
;   generateSupport,0
;   supportExtruder,0
;   supportInfillPercentage,30
;   supportExtraInflation,0
;   supportBaseLayers,0
;   denseSupportExtruder,0
;   denseSupportLayers,0
;   denseSupportInfillPercentage,70
;   supportLayerInterval,1
;   supportHorizontalPartOffset,0.3
;   supportUpperSeparationLayers,1
;   supportLowerSeparationLayers,1
;   supportType,0
;   supportGridSpacing,4
;   maxOverhangAngle,45
;   supportAngles,0
;   temperatureName,Primary Extruder,Heated Bed
;   temperatureNumber,0,0
;   temperatureSetpointCount,1,1
;   temperatureSetpointLayers,1,1
;   temperatureSetpointTemperatures,205,60
;   temperatureStabilizeAtStartup,1,1
;   temperatureHeatedBed,0,1
;   fanLayers,1,2
;   fanSpeeds,0,100
;   blipFanToFullPower,1
;   adjustSpeedForCooling,1
;   minSpeedLayerTime,15
;   minCoolingSpeedSlowdown,20
;   increaseFanForCooling,0
;   minFanLayerTime,45
;   maxCoolingFanSpeed,100
;   increaseFanForBridging,0
;   bridgingFanSpeed,100
;   use5D,1
;   relativeEdistances,0
;   allowEaxisZeroing,1
;   independentExtruderAxes,0
;   includeM10123,0
;   stickySupport,1
;   applyToolheadOffsets,0
;   gcodeXoffset,0
;   gcodeYoffset,0
;   gcodeZoffset,0
;   overrideMachineDefinition,1
;   machineTypeOverride,0
;   strokeXoverride,280
;   strokeYoverride,280
;   strokeZoverride,250
;   originOffsetXoverride,0
;   originOffsetYoverride,0
;   originOffsetZoverride,0
;   homeXdirOverride,-1
;   homeYdirOverride,-1
;   homeZdirOverride,-1
;   flipXoverride,1
;   flipYoverride,-1
;   flipZoverride,1
;   toolheadOffsets,0,0|0,0|0,0|0,0|0,0|0,0
;   overrideFirmwareConfiguration,1
;   firmwareTypeOverride,RepRap (Marlin/Repetier/Sprinter)
;   GPXconfigOverride,r2
;   baudRateOverride,250000
;   overridePrinterModels,1
;   printerModelsOverride,LulzBot_TAZ6.stl
;   startingGcode,G26 ; clear probe fail condition,M140 S[bed0_temperature] ; start heating bed,M104 S170 ; start heating extruder,G28 XY ; home X and Y,G1 X-19 Y258 F1000 ; move to safe homing position,M109 S170 ; soften filament for Z homing,G28 Z ; home Z,G92 E0 ; zero extruder,G1 E-12 F100 ; retract 12mm filament,G1 X-15 Y100 F3000 ; move above wiper pad,G1 Z1 ; push nozzle into wiper,G1 X-17 Y95 F1000 ; slow wipe,G1 X-17 Y90 F1000 ; slow wipe,G1 X-17 Y85 F1000 ; slow wipe,G1 X-15 Y90 F1000 ; slow wipe,G1 X-17 Y80 F1000 ; slow wipe,G1 X-15 Y95 F1000 ; slow wipe,G1 X-17 Y75 F2000 ; fast wipe,G1 X-15 Y65 F2000 ; fast wipe,G1 X-17 Y70 F2000 ; fast wipe,G1 X-15 Y60 F2000 ; fast wipe,G1 X-17 Y55 F2000 ; fast wipe,G1 X-15 Y50 F2000 ; fast wipe,G1 X-17 Y40 F2000 ; fast wipe,G1 X-15 Y45 F2000 ; fast wipe,G1 X-17 Y35 F2000 ; fast wipe,G1 X-15 Y40 F2000 ; fast wipe,G1 X-17 Y70 F2000 ; fast wipe,G1 X-15 Y30 Z2 F2000 ; fast wipe,G1 X-17 Y35 F2000 ; fast wipe,G1 X-15 Y25 F2000 ; fast wipe,G1 X-17 Y30 F2000 ; fast wipe,G1 X-15 Y25 Z1.5 F1000 ; slow wipe,G1 X-17 Y23 F1000 ; slow wipe,G1 Z10 ; raise extruder,G1 X-9 Y-9 ; move above first probe point,M204 S100 ; set accel for probing,G29 ; probe sequence (for auto-leveling),M204 S500 ; set accel back to normal,G1 X0 Y0 Z15 F5000 ; get out of the way,M400 ; clear buffer,M117 Heating...,M104 S[extruder0_temperature] ; start heating extruder,M190 S[bed0_temperature] ; stabilize bed,M109 S[extruder0_temperature] ; stabilize extruder,G1 Z2 E0 F75 ; extrude filament back into nozzle,M117 TAZ Printing...
;   layerChangeGcode,
;   retractionGcode,
;   toolChangeGcode,
;   endingGcode,M400 ; wait for moves to finish,M104 S0 ; turn off extruder,M107 ; turn off fan,G1 Y0 F3000 ; move to cooling position,M117 Cooling please wait,M190 S50 ; cool down bed,G1 Y280 F3000 ; present finished print,M140 S0 ; turn off bed,M84 ; disable motors,M117 Print complete
;   exportFileFormat,gcode
;   celebration,0
;   celebrationSong,Random Song
;   postProcessing,
;   defaultSpeed,3600
;   outlineUnderspeed,0.5
;   solidInfillUnderspeed,0.8
;   supportUnderspeed,0.8
;   rapidXYspeed,4800
;   rapidZspeed,1000
;   minBridgingArea,50
;   bridgingExtraInflation,0
;   bridgingExtrusionMultiplier,1
;   bridgingSpeedMultiplier,1
;   useFixedBridgingAngle,0
;   fixedBridgingAngle,0
;   applyBridgingToPerimeters,0
;   filamentDiameters,3|2.85|2.85|2.85|2.85|2.85
;   filamentPricesPerKg,46|46|46|46|46|46
;   filamentDensities,1.25|1.25|1.25|1.25|1.25|1.25
;   useMinPrintHeight,0
;   minPrintHeight,0
;   useMaxPrintHeight,0
;   maxPrintHeight,0
;   useDiaphragm,0
;   diaphragmLayerInterval,20
;   robustSlicing,1
;   mergeAllIntoSolid,0
;   onlyRetractWhenCrossingOutline,1
;   retractBetweenLayers,1
;   useRetractionMinTravel,0
;   retractionMinTravel,3
;   retractWhileWiping,0
;   onlyWipeOutlines,1
;   avoidCrossingOutline,0
;   maxMovementDetourFactor,3
;   toolChangeRetractionDistance,12
;   toolChangeExtraRestartDistance,-0.5
;   toolChangeRetractionSpeed,600
;   externalThinWallType,0
;   internalThinWallType,2
;   thinWallAllowedOverlapPercentage,10
;   singleExtrusionMinLength,1
;   singleExtrusionMinPrintingWidthPercentage,50
;   singleExtrusionMaxPrintingWidthPercentage,200
;   singleExtrusionEndpointExtension,0.2
;   horizontalSizeCompensation,0
G90
M82
M106 S0
G26 ; clear probe fail condition
M140 S60 ; start heating bed
M104 S170 ; start heating extruder
G28 XY ; home X and Y
G1 X-19 Y258 F1000 ; move to safe homing position
M109 S170 ; soften filament for Z homing
G28 Z ; home Z
G92 E0 ; zero extruder
G1 E-12 F100 ; retract 12mm filament
G1 X-15 Y100 F3000 ; move above wiper pad
G1 Z1 ; push nozzle into wiper
G1 X-17 Y95 F1000 ; slow wipe
G1 X-17 Y90 F1000 ; slow wipe
G1 X-17 Y85 F1000 ; slow wipe
G1 X-15 Y90 F1000 ; slow wipe
G1 X-17 Y80 F1000 ; slow wipe
G1 X-15 Y95 F1000 ; slow wipe
G1 X-17 Y75 F2000 ; fast wipe
G1 X-15 Y65 F2000 ; fast wipe
G1 X-17 Y70 F2000 ; fast wipe
G1 X-15 Y60 F2000 ; fast wipe
G1 X-17 Y55 F2000 ; fast wipe
G1 X-15 Y50 F2000 ; fast wipe
G1 X-17 Y40 F2000 ; fast wipe
G1 X-15 Y45 F2000 ; fast wipe
G1 X-17 Y35 F2000 ; fast wipe
G1 X-15 Y40 F2000 ; fast wipe
G1 X-17 Y70 F2000 ; fast wipe
G1 X-15 Y30 Z2 F2000 ; fast wipe
G1 X-17 Y35 F2000 ; fast wipe
G1 X-15 Y25 F2000 ; fast wipe
G1 X-17 Y30 F2000 ; fast wipe
G1 X-15 Y25 Z1.5 F1000 ; slow wipe
G1 X-17 Y23 F1000 ; slow wipe
G1 Z10 ; raise extruder
G1 X-9 Y-9 ; move above first probe point
M204 S100 ; set accel for probing
G29 ; probe sequence (for auto-leveling)
M204 S500 ; set accel back to normal
G1 X0 Y0 Z15 F5000 ; get out of the way
M400 ; clear buffer
M117 Heating...
M104 S205 ; start heating extruder
M190 S60 ; stabilize bed
M109 S205 ; stabilize extruder
G1 Z2 E0 F75 ; extrude filament back into nozzle
M117 TAZ Printing...
; process PLA/Medium/3.00
; layer 1, Z = 0.180
T0
G92 E0.0000
G1 E-1.5000 F1800
; feature skirt
; tool H0.180 W0.500
G1 Z0.180 F1000
G1 X89.120 Y89.245 F4800
G1 E0.0000 F1800
G92 E0.0000
G1 X89.338 Y89.029 E0.0035 F900
G1 X89.954 Y88.471 E0.0130
G1 X90.199 Y88.269 E0.0167
G1 X90.906 Y87.741 E0.0268
G1 X91.177 Y87.558 E0.0305
G1 X91.931 Y87.101 E0.0406
G1 X92.217 Y86.946 E0.0444
G1 X93.015 Y86.561 E0.0545
G1 X93.319 Y86.433 E0.0583
G1 X94.158 Y86.126 E0.0685
G1 X94.477 Y86.026 E0.0724
G1 X95.352 Y85.801 E0.0827
G1 X95.683 Y85.733 E0.0866
G1 X96.588 Y85.594 E0.0971
G1 X96.928 Y85.560 E0.1010
G1 X97.769 Y85.517 E0.1106
G1 X97.940 Y85.513 E0.1126
G1 X131.822 Y85.513 E0.5009
G1 X131.994 Y85.517 E0.5028
G1 X132.842 Y85.560 E0.5126
G1 X133.184 Y85.595 E0.5165
G1 X134.095 Y85.735 E0.5271
G1 X134.429 Y85.804 E0.5310
G1 X135.310 Y86.032 E0.5414
G1 X135.631 Y86.133 E0.5453
G1 X136.474 Y86.444 E0.5556
G1 X136.780 Y86.574 E0.5594
G1 X137.580 Y86.963 E0.5696
G1 X137.868 Y87.120 E0.5733
G1 X138.621 Y87.580 E0.5834
G1 X138.889 Y87.763 E0.5872
G1 X139.591 Y88.290 E0.5972
G1 X139.839 Y88.495 E0.6009
G1 X140.001 Y88.644 E0.6034
G1 X140.192 Y88.471 E0.6064
G1 X140.437 Y88.269 E0.6100
G1 X141.144 Y87.741 E0.6201
G1 X141.414 Y87.558 E0.6239
G1 X142.168 Y87.101 E0.6340
G1 X142.454 Y86.946 E0.6377
G1 X143.252 Y86.561 E0.6478
G1 X143.556 Y86.433 E0.6516
G1 X144.395 Y86.126 E0.6619
G1 X144.714 Y86.026 E0.6657
G1 X145.589 Y85.801 E0.6760
G1 X145.921 Y85.733 E0.6799
G1 X146.826 Y85.594 E0.6904
G1 X147.166 Y85.560 E0.6943
G1 X148.007 Y85.517 E0.7040
G1 X148.178 Y85.513 E0.7059
G1 X182.060 Y85.513 E1.0942
G1 X182.232 Y85.517 E1.0962
G1 X183.079 Y85.560 E1.1059
G1 X183.421 Y85.595 E1.1098
G1 X184.333 Y85.735 E1.1204
G1 X184.667 Y85.804 E1.1243
G1 X185.547 Y86.032 E1.1347
G1 X185.868 Y86.133 E1.1386
G1 X186.712 Y86.444 E1.1489
G1 X187.017 Y86.574 E1.1527
G1 X187.818 Y86.963 E1.1629
G1 X188.105 Y87.120 E1.1666
G1 X188.859 Y87.580 E1.1768
G1 X189.127 Y87.762 E1.1805
G1 X189.828 Y88.290 E1.1905
G1 X190.076 Y88.495 E1.1942
G1 X190.722 Y89.085 E1.2042
G1 X190.948 Y89.313 E1.2079
G1 X191.535 Y89.961 E1.2179
G1 X191.739 Y90.209 E1.2216
G1 X192.262 Y90.911 E1.2317
G1 X192.443 Y91.178 E1.2354
G1 X192.899 Y91.931 E1.2454
G1 X193.054 Y92.217 E1.2492
G1 X193.439 Y93.015 E1.2593
G1 X193.567 Y93.319 E1.2631
G1 X193.874 Y94.158 E1.2733
G1 X193.974 Y94.477 E1.2772
G1 X194.199 Y95.352 E1.2875
G1 X194.267 Y95.683 E1.2914
G1 X194.406 Y96.588 E1.3019
G1 X194.440 Y96.928 E1.3058
G1 X194.483 Y97.769 E1.3155
G1 X194.487 Y97.940 E1.3174
G1 X194.487 Y131.822 E1.7057
G1 X194.483 Y131.994 E1.7076
G1 X194.440 Y132.842 E1.7174
G1 X194.405 Y133.184 E1.7213
G1 X194.265 Y134.095 E1.7319
G1 X194.196 Y134.429 E1.7358
G1 X193.968 Y135.310 E1.7462
G1 X193.867 Y135.631 E1.7501
G1 X193.556 Y136.474 E1.7604
G1 X193.426 Y136.780 E1.7642
G1 X193.037 Y137.581 E1.7744
G1 X192.880 Y137.868 E1.7781
G1 X192.420 Y138.621 E1.7882
G1 X192.238 Y138.889 E1.7920
G1 X191.710 Y139.591 E1.8020
G1 X191.505 Y139.838 E1.8057
G1 X190.915 Y140.485 E1.8157
G1 X190.687 Y140.711 E1.8194
G1 X190.039 Y141.298 E1.8294
G1 X189.791 Y141.501 E1.8331
G1 X189.089 Y142.025 E1.8431
G1 X188.822 Y142.205 E1.8468
G1 X188.069 Y142.662 E1.8569
G1 X187.783 Y142.817 E1.8606
G1 X186.985 Y143.201 E1.8708
G1 X186.681 Y143.330 E1.8746
G1 X185.842 Y143.637 E1.8848
G1 X185.523 Y143.736 E1.8886
G1 X184.648 Y143.962 E1.8990
G1 X184.317 Y144.030 E1.9029
G1 X183.412 Y144.168 E1.9134
G1 X183.072 Y144.203 E1.9173
G1 X182.231 Y144.246 E1.9269
G1 X182.060 Y144.250 E1.9289
G1 X148.177 Y144.250 E2.3172
G1 X148.006 Y144.246 E2.3191
G1 X147.158 Y144.202 E2.3288
G1 X146.816 Y144.167 E2.3328
G1 X145.905 Y144.027 E2.3434
G1 X145.571 Y143.958 E2.3473
G1 X144.690 Y143.730 E2.3577
G1 X144.369 Y143.630 E2.3615
G1 X143.526 Y143.319 E2.3718
G1 X143.220 Y143.188 E2.3756
G1 X143.155 Y143.157 E2.3765
G1 X143.201 Y143.252 E2.3777
G1 X143.329 Y143.556 E2.3815
G1 X143.637 Y144.395 E2.3917
G1 X143.736 Y144.714 E2.3955
G1 X143.962 Y145.590 E2.4059
G1 X144.030 Y145.921 E2.4098
G1 X144.168 Y146.826 E2.4203
G1 X144.203 Y147.166 E2.4242
G1 X144.246 Y148.006 E2.4338
G1 X144.250 Y148.178 E2.4358
G1 X144.250 Y182.060 E2.8240
G1 X144.246 Y182.232 E2.8260
G1 X144.202 Y183.080 E2.8357
G1 X144.167 Y183.422 E2.8397
G1 X144.027 Y184.333 E2.8502
G1 X143.958 Y184.667 E2.8542
G1 X143.730 Y185.547 E2.8646
G1 X143.630 Y185.868 E2.8684
G1 X143.318 Y186.712 E2.8787
G1 X143.188 Y187.017 E2.8825
G1 X142.800 Y187.818 E2.8927
G1 X142.643 Y188.105 E2.8965
G1 X142.182 Y188.859 E2.9066
G1 X142.000 Y189.127 E2.9103
G1 X141.473 Y189.828 E2.9204
G1 X141.267 Y190.076 E2.9241
G1 X140.677 Y190.722 E2.9341
G1 X140.450 Y190.948 E2.9378
G1 X139.802 Y191.535 E2.9478
G1 X139.554 Y191.739 E2.9515
G1 X138.852 Y192.262 E2.9615
G1 X138.584 Y192.443 E2.9652
G1 X137.832 Y192.899 E2.9753
G1 X137.546 Y193.054 E2.9790
G1 X136.747 Y193.439 E2.9892
G1 X136.444 Y193.567 E2.9929
G1 X135.604 Y193.874 E3.0032
G1 X135.286 Y193.974 E3.0070
G1 X134.411 Y194.199 E3.0174
G1 X134.079 Y194.267 E3.0212
G1 X133.174 Y194.406 E3.0317
G1 X132.834 Y194.440 E3.0357
G1 X131.994 Y194.483 E3.0453
G1 X131.822 Y194.487 E3.0473
G1 X97.940 Y194.487 E3.4355
G1 X97.768 Y194.483 E3.4375
G1 X96.921 Y194.440 E3.4472
G1 X96.579 Y194.405 E3.4512
G1 X95.667 Y194.265 E3.4617
G1 X95.334 Y194.196 E3.4656
G1 X94.453 Y193.968 E3.4761
G1 X94.132 Y193.867 E3.4799
G1 X93.288 Y193.556 E3.4902
G1 X92.983 Y193.426 E3.4940
G1 X92.182 Y193.037 E3.5042
G1 X91.895 Y192.880 E3.5080
G1 X91.141 Y192.420 E3.5181
G1 X90.873 Y192.238 E3.5218
G1 X90.172 Y191.710 E3.5319
G1 X89.924 Y191.504 E3.5355
G1 X89.278 Y190.914 E3.5456
G1 X89.052 Y190.687 E3.5492
G1 X88.465 Y190.039 E3.5593
G1 X88.261 Y189.791 E3.5629
G1 X87.738 Y189.089 E3.5730
G1 X87.557 Y188.822 E3.5767
G1 X87.101 Y188.069 E3.5868
G1 X86.946 Y187.783 E3.5905
G1 X86.561 Y186.985 E3.6006
G1 X86.433 Y186.681 E3.6044
G1 X86.126 Y185.842 E3.6147
G1 X86.026 Y185.523 E3.6185
G1 X85.801 Y184.648 E3.6288
G1 X85.733 Y184.317 E3.6327
G1 X85.594 Y183.412 E3.6432
G1 X85.560 Y183.072 E3.6471
G1 X85.517 Y182.231 E3.6568
G1 X85.513 Y182.060 E3.6587
G1 X85.513 Y148.178 E4.0470
G1 X85.517 Y148.006 E4.0490
G1 X85.560 Y147.158 E4.0587
G1 X85.595 Y146.816 E4.0626
G1 X85.735 Y145.905 E4.0732
G1 X85.804 Y145.571 E4.0771
G1 X86.032 Y144.690 E4.0875
G1 X86.133 Y144.369 E4.0914
G1 X86.444 Y143.526 E4.1017
G1 X86.574 Y143.220 E4.1055
G1 X86.963 Y142.420 E4.1157
G1 X87.120 Y142.132 E4.1194
G1 X87.580 Y141.379 E4.1296
G1 X87.763 Y141.111 E4.1333
G1 X88.290 Y140.409 E4.1433
G1 X88.495 Y140.162 E4.1470
G1 X88.644 Y139.999 E4.1495
G1 X88.465 Y139.802 E4.1526
G1 X88.261 Y139.554 E4.1563
G1 X87.738 Y138.852 E4.1663
G1 X87.557 Y138.584 E4.1700
G1 X87.101 Y137.832 E4.1801
G1 X86.946 Y137.546 E4.1838
G1 X86.561 Y136.747 E4.1940
G1 X86.433 Y136.444 E4.1977
G1 X86.126 Y135.605 E4.2080
G1 X86.026 Y135.286 E4.2118
G1 X85.801 Y134.411 E4.2222
G1 X85.733 Y134.079 E4.2260
G1 X85.594 Y133.174 E4.2365
G1 X85.560 Y132.834 E4.2405
G1 X85.517 Y131.993 E4.2501
G1 X85.513 Y131.822 E4.2521
G1 X85.513 Y97.940 E4.6403
G1 X85.517 Y97.768 E4.6423
G1 X85.560 Y96.921 E4.6520
G1 X85.595 Y96.578 E4.6560
G1 X85.735 Y95.667 E4.6665
G1 X85.804 Y95.334 E4.6704
G1 X86.032 Y94.453 E4.6809
G1 X86.133 Y94.132 E4.6847
G1 X86.444 Y93.288 E4.6950
G1 X86.574 Y92.983 E4.6988
G1 X86.963 Y92.182 E4.7090
G1 X87.120 Y91.895 E4.7128
G1 X87.580 Y91.141 E4.7229
