; G-Code generated by Simplify3D(R) Version 4.1.2
; Sep 9, 2020 at 4:58:23 PM
; Settings Summary
;   processName,Process1
;   applyToModels,universal_1_04
;   profileName,LulzBot TAZ 6 Single (modified)
;   profileVersion,2016-06-08 08:00:00
;   baseProfile,
;   printMaterial,PLA
;   printQuality,Medium
;   printExtruders,
;   extruderName,Primary Extruder
;   extruderToolheadNumber,0
;   extruderDiameter,0.5
;   extruderAutoWidth,0
;   extruderWidth,0.5
;   extrusionMultiplier,0.9
;   extruderUseRetract,1
;   extruderRetractionDistance,1.5
;   extruderExtraRestartDistance,0
;   extruderRetractionZLift,0
;   extruderRetractionSpeed,1800
;   extruderUseCoasting,0
;   extruderCoastingDistance,0.2
;   extruderUseWipe,0
;   extruderWipeDistance,5
;   primaryExtruder,0
;   layerHeight,0.2
;   topSolidLayers,3
;   bottomSolidLayers,3
;   perimeterOutlines,3
;   printPerimetersInsideOut,1
;   startPointOption,2
;   startPointOriginX,0
;   startPointOriginY,0
;   sequentialIslands,0
;   spiralVaseMode,0
;   firstLayerHeightPercentage,90
;   firstLayerWidthPercentage,100
;   firstLayerUnderspeed,0.25
;   useRaft,0
;   raftExtruder,0
;   raftTopLayers,3
;   raftBaseLayers,2
;   raftOffset,3
;   raftSeparationDistance,0.14
;   raftTopInfill,100
;   aboveRaftSpeedMultiplier,0.3
;   useSkirt,1
;   skirtExtruder,0
;   skirtLayers,1
;   skirtOutlines,2
;   skirtOffset,6
;   usePrimePillar,0
;   primePillarExtruder,999
;   primePillarWidth,12
;   primePillarLocation,7
;   primePillarSpeedMultiplier,1
;   useOozeShield,0
;   oozeShieldExtruder,999
;   oozeShieldOffset,2
;   oozeShieldOutlines,1
;   oozeShieldSidewallShape,1
;   oozeShieldSidewallAngle,30
;   oozeShieldSpeedMultiplier,1
;   infillExtruder,0
;   internalInfillPattern,Rectilinear
;   externalInfillPattern,Rectilinear
;   infillPercentage,20
;   outlineOverlapPercentage,15
;   infillExtrusionWidthPercentage,200
;   minInfillLength,5
;   infillLayerInterval,1
;   internalInfillAngles,45,-45
;   overlapInternalInfillAngles,0
;   externalInfillAngles,45,-45
;   generateSupport,0
;   supportExtruder,0
;   supportInfillPercentage,30
;   supportExtraInflation,0
;   supportBaseLayers,0
;   denseSupportExtruder,0
;   denseSupportLayers,0
;   denseSupportInfillPercentage,70
;   supportLayerInterval,1
;   supportHorizontalPartOffset,0.3
;   supportUpperSeparationLayers,1
;   supportLowerSeparationLayers,1
;   supportType,0
;   supportGridSpacing,4
;   maxOverhangAngle,45
;   supportAngles,0
;   temperatureName,Primary Extruder,Heated Bed
;   temperatureNumber,0,0
;   temperatureSetpointCount,1,1
;   temperatureSetpointLayers,1,1
;   temperatureSetpointTemperatures,205,60
;   temperatureStabilizeAtStartup,1,1
;   temperatureHeatedBed,0,1
;   fanLayers,1,2
;   fanSpeeds,0,100
;   blipFanToFullPower,1
;   adjustSpeedForCooling,1
;   minSpeedLayerTime,15
;   minCoolingSpeedSlowdown,20
;   increaseFanForCooling,0
;   minFanLayerTime,45
;   maxCoolingFanSpeed,100
;   increaseFanForBridging,0
;   bridgingFanSpeed,100
;   use5D,1
;   relativeEdistances,0
;   allowEaxisZeroing,1
;   independentExtruderAxes,0
;   includeM10123,0
;   stickySupport,1
;   applyToolheadOffsets,0
;   gcodeXoffset,0
;   gcodeYoffset,0
;   gcodeZoffset,0
;   overrideMachineDefinition,1
;   machineTypeOverride,0
;   strokeXoverride,280
;   strokeYoverride,280
;   strokeZoverride,250
;   originOffsetXoverride,0
;   originOffsetYoverride,0
;   originOffsetZoverride,0
;   homeXdirOverride,-1
;   homeYdirOverride,-1
;   homeZdirOverride,-1
;   flipXoverride,1
;   flipYoverride,-1
;   flipZoverride,1
;   toolheadOffsets,0,0|0,0|0,0|0,0|0,0|0,0
;   overrideFirmwareConfiguration,1
;   firmwareTypeOverride,RepRap (Marlin/Repetier/Sprinter)
;   GPXconfigOverride,r2
;   baudRateOverride,250000
;   overridePrinterModels,1
;   printerModelsOverride,LulzBot_TAZ6.stl
;   startingGcode,G26 ; clear probe fail condition,M140 S[bed0_temperature] ; start heating bed,M104 S170 ; start heating extruder,G28 XY ; home X and Y,G1 X-19 Y258 F1000 ; move to safe homing position,M109 S170 ; soften filament for Z homing,G28 Z ; home Z,G92 E0 ; zero extruder,G1 E-12 F100 ; retract 12mm filament,G1 X-15 Y100 F3000 ; move above wiper pad,G1 Z1 ; push nozzle into wiper,G1 X-17 Y95 F1000 ; slow wipe,G1 X-17 Y90 F1000 ; slow wipe,G1 X-17 Y85 F1000 ; slow wipe,G1 X-15 Y90 F1000 ; slow wipe,G1 X-17 Y80 F1000 ; slow wipe,G1 X-15 Y95 F1000 ; slow wipe,G1 X-17 Y75 F2000 ; fast wipe,G1 X-15 Y65 F2000 ; fast wipe,G1 X-17 Y70 F2000 ; fast wipe,G1 X-15 Y60 F2000 ; fast wipe,G1 X-17 Y55 F2000 ; fast wipe,G1 X-15 Y50 F2000 ; fast wipe,G1 X-17 Y40 F2000 ; fast wipe,G1 X-15 Y45 F2000 ; fast wipe,G1 X-17 Y35 F2000 ; fast wipe,G1 X-15 Y40 F2000 ; fast wipe,G1 X-17 Y70 F2000 ; fast wipe,G1 X-15 Y30 Z2 F2000 ; fast wipe,G1 X-17 Y35 F2000 ; fast wipe,G1 X-15 Y25 F2000 ; fast wipe,G1 X-17 Y30 F2000 ; fast wipe,G1 X-15 Y25 Z1.5 F1000 ; slow wipe,G1 X-17 Y23 F1000 ; slow wipe,G1 Z10 ; raise extruder,G1 X-9 Y-9 ; move above first probe point,M204 S100 ; set accel for probing,G29 ; probe sequence (for auto-leveling),M204 S500 ; set accel back to normal,G1 X0 Y0 Z15 F5000 ; get out of the way,M400 ; clear buffer,M117 Heating...,M104 S[extruder0_temperature] ; start heating extruder,M190 S[bed0_temperature] ; stabilize bed,M109 S[extruder0_temperature] ; stabilize extruder,G1 Z2 E0 F75 ; extrude filament back into nozzle,M117 TAZ Printing...
;   layerChangeGcode,
;   retractionGcode,
;   toolChangeGcode,
;   endingGcode,M400 ; wait for moves to finish,M104 S0 ; turn off extruder,M107 ; turn off fan,G1 Y0 F3000 ; move to cooling position,M117 Cooling please wait,M190 S50 ; cool down bed,G1 Y280 F3000 ; present finished print,M140 S0 ; turn off bed,M84 ; disable motors,M117 Print complete
;   exportFileFormat,gcode
;   celebration,0
;   celebrationSong,Random Song
;   postProcessing,Z:\3d-models\taz-6-gcode\update-git.bat
;   defaultSpeed,3600
;   outlineUnderspeed,0.5
;   solidInfillUnderspeed,0.8
;   supportUnderspeed,0.8
;   rapidXYspeed,4800
;   rapidZspeed,1000
;   minBridgingArea,50
;   bridgingExtraInflation,0
;   bridgingExtrusionMultiplier,1
;   bridgingSpeedMultiplier,1
;   useFixedBridgingAngle,0
;   fixedBridgingAngle,0
;   applyBridgingToPerimeters,0
;   filamentDiameters,3|2.85|2.85|2.85|2.85|2.85
;   filamentPricesPerKg,46|46|46|46|46|46
;   filamentDensities,1.25|1.25|1.25|1.25|1.25|1.25
;   useMinPrintHeight,0
;   minPrintHeight,0
;   useMaxPrintHeight,0
;   maxPrintHeight,0
;   useDiaphragm,0
;   diaphragmLayerInterval,20
;   robustSlicing,1
;   mergeAllIntoSolid,0
;   onlyRetractWhenCrossingOutline,1
;   retractBetweenLayers,1
;   useRetractionMinTravel,0
;   retractionMinTravel,3
;   retractWhileWiping,0
;   onlyWipeOutlines,1
;   avoidCrossingOutline,0
;   maxMovementDetourFactor,3
;   toolChangeRetractionDistance,12
;   toolChangeExtraRestartDistance,-0.5
;   toolChangeRetractionSpeed,600
;   externalThinWallType,0
;   internalThinWallType,2
;   thinWallAllowedOverlapPercentage,10
;   singleExtrusionMinLength,1
;   singleExtrusionMinPrintingWidthPercentage,50
;   singleExtrusionMaxPrintingWidthPercentage,200
;   singleExtrusionEndpointExtension,0.2
;   horizontalSizeCompensation,0
G90
M82
M106 S0
G26 ; clear probe fail condition
M140 S60 ; start heating bed
M104 S170 ; start heating extruder
G28 XY ; home X and Y
G1 X-19 Y258 F1000 ; move to safe homing position
M109 S170 ; soften filament for Z homing
G28 Z ; home Z
G92 E0 ; zero extruder
G1 E-12 F100 ; retract 12mm filament
G1 X-15 Y100 F3000 ; move above wiper pad
G1 Z1 ; push nozzle into wiper
G1 X-17 Y95 F1000 ; slow wipe
G1 X-17 Y90 F1000 ; slow wipe
G1 X-17 Y85 F1000 ; slow wipe
G1 X-15 Y90 F1000 ; slow wipe
G1 X-17 Y80 F1000 ; slow wipe
G1 X-15 Y95 F1000 ; slow wipe
G1 X-17 Y75 F2000 ; fast wipe
G1 X-15 Y65 F2000 ; fast wipe
G1 X-17 Y70 F2000 ; fast wipe
G1 X-15 Y60 F2000 ; fast wipe
G1 X-17 Y55 F2000 ; fast wipe
G1 X-15 Y50 F2000 ; fast wipe
G1 X-17 Y40 F2000 ; fast wipe
G1 X-15 Y45 F2000 ; fast wipe
G1 X-17 Y35 F2000 ; fast wipe
G1 X-15 Y40 F2000 ; fast wipe
G1 X-17 Y70 F2000 ; fast wipe
G1 X-15 Y30 Z2 F2000 ; fast wipe
G1 X-17 Y35 F2000 ; fast wipe
G1 X-15 Y25 F2000 ; fast wipe
G1 X-17 Y30 F2000 ; fast wipe
G1 X-15 Y25 Z1.5 F1000 ; slow wipe
G1 X-17 Y23 F1000 ; slow wipe
G1 Z10 ; raise extruder
G1 X-9 Y-9 ; move above first probe point
M204 S100 ; set accel for probing
G29 ; probe sequence (for auto-leveling)
M204 S500 ; set accel back to normal
G1 X0 Y0 Z15 F5000 ; get out of the way
M400 ; clear buffer
M117 Heating...
M104 S205 ; start heating extruder
M190 S60 ; stabilize bed
M109 S205 ; stabilize extruder
G1 Z2 E0 F75 ; extrude filament back into nozzle
M117 TAZ Printing...
; process Process1
; layer 1, Z = 0.180
T0
G92 E0.0000
G1 E-1.5000 F1800
; feature skirt
; tool H0.180 W0.500
G1 Z0.180 F1000
G1 X103.618 Y116.355 F4800
G1 E0.0000 F1800
G92 E0.0000
G1 X104.043 Y116.011 E0.0063 F900
G1 X105.242 Y115.191 E0.0229
G1 X105.716 Y114.920 E0.0292
G1 X107.032 Y114.305 E0.0458
G1 X107.544 Y114.114 E0.0521
G1 X108.942 Y113.718 E0.0687
G1 X109.478 Y113.612 E0.0750
G1 X110.406 Y113.506 E0.0857
G1 X110.440 Y113.377 E0.0872
G1 X110.680 Y112.743 E0.0950
G1 X111.090 Y111.921 E0.1055
G1 X111.346 Y111.491 E0.1112
G1 X111.790 Y110.857 E0.1201
G1 X112.169 Y110.405 E0.1269
G1 X112.783 Y109.791 E0.1368
G1 X113.235 Y109.412 E0.1436
G1 X113.947 Y108.914 E0.1535
G1 X114.457 Y108.619 E0.1603
G1 X115.245 Y108.252 E0.1702
G1 X115.798 Y108.050 E0.1770
G1 X116.637 Y107.826 E0.1870
G1 X117.218 Y107.723 E0.1937
G1 X117.936 Y107.660 E0.2020
G1 X118.231 Y107.647 E0.2053
G1 X172.525 Y107.646 E0.8275
G1 X172.820 Y107.659 E0.8309
G1 X173.539 Y107.722 E0.8392
G1 X174.119 Y107.824 E0.8459
G1 X174.958 Y108.049 E0.8559
G1 X175.512 Y108.251 E0.8626
G1 X176.300 Y108.618 E0.8726
G1 X176.810 Y108.913 E0.8793
G1 X177.522 Y109.411 E0.8893
G1 X177.974 Y109.790 E0.8961
G1 X178.588 Y110.404 E0.9060
G1 X178.967 Y110.856 E0.9128
G1 X179.466 Y111.568 E0.9227
G1 X179.760 Y112.078 E0.9295
G1 X180.127 Y112.866 E0.9394
G1 X180.329 Y113.420 E0.9462
G1 X180.554 Y114.259 E0.9562
G1 X180.656 Y114.840 E0.9629
G1 X180.719 Y115.558 E0.9712
G1 X180.732 Y115.853 E0.9746
G1 X180.731 Y164.192 E1.5285
G1 X180.709 Y164.575 E1.5329
G1 X180.622 Y165.340 E1.5417
G1 X180.528 Y165.832 E1.5474
G1 X180.328 Y166.580 E1.5563
G1 X180.126 Y167.134 E1.5631
G1 X179.759 Y167.921 E1.5730
G1 X179.464 Y168.432 E1.5798
G1 X178.966 Y169.143 E1.5897
G1 X178.587 Y169.595 E1.5965
G1 X177.973 Y170.209 E1.6064
G1 X177.521 Y170.588 E1.6132
G1 X176.810 Y171.086 E1.6231
G1 X176.299 Y171.381 E1.6299
G1 X175.512 Y171.748 E1.6399
G1 X174.958 Y171.950 E1.6466
G1 X174.119 Y172.174 E1.6566
G1 X173.538 Y172.277 E1.6633
G1 X172.820 Y172.340 E1.6716
G1 X172.525 Y172.353 E1.6750
G1 X118.231 Y172.353 E2.2971
G1 X117.937 Y172.340 E2.3005
G1 X117.218 Y172.277 E2.3088
G1 X116.637 Y172.174 E2.3155
G1 X115.798 Y171.950 E2.3255
G1 X115.245 Y171.748 E2.3322
G1 X114.417 Y171.362 E2.3427
G1 X113.834 Y171.015 E2.3505
G1 X113.096 Y170.469 E2.3610
G1 X112.717 Y170.142 E2.3667
G1 X112.169 Y169.595 E2.3756
G1 X111.790 Y169.143 E2.3824
G1 X111.292 Y168.432 E2.3923
G1 X110.997 Y167.921 E2.3991
G1 X110.630 Y167.134 E2.4090
G1 X110.429 Y166.580 E2.4158
G1 X110.204 Y165.741 E2.4257
G1 X110.101 Y165.160 E2.4325
G1 X110.038 Y164.441 E2.4408
G1 X110.026 Y164.145 E2.4442
G1 X110.031 Y150.096 E2.6051
G1 X110.236 Y148.934 E2.6187
G1 X110.682 Y147.710 E2.6336
G1 X111.272 Y146.688 E2.6471
G1 X112.110 Y145.689 E2.6621
G1 X112.911 Y145.017 E2.6740
G1 X112.807 Y144.957 E2.6754
G1 X111.422 Y143.571 E2.6979
G1 X110.533 Y142.032 E2.7182
G1 X110.141 Y140.570 E2.7356
G1 X110.026 Y139.692 E2.7457
G1 X110.026 Y138.018 E2.7649
G1 X109.478 Y137.956 E2.7712
G1 X108.942 Y137.850 E2.7775
G1 X107.544 Y137.454 E2.7941
G1 X107.032 Y137.263 E2.8004
G1 X105.716 Y136.647 E2.8170
G1 X105.242 Y136.377 E2.8233
G1 X104.043 Y135.557 E2.8400
G1 X103.618 Y135.213 E2.8462
G1 X102.566 Y134.211 E2.8629
G1 X102.202 Y133.803 E2.8691
G1 X101.326 Y132.644 E2.8858
G1 X101.033 Y132.183 E2.8920
G1 X100.355 Y130.899 E2.9087
G1 X100.140 Y130.396 E2.9149
G1 X99.678 Y129.019 E2.9316
G1 X99.546 Y128.489 E2.9378
G1 X99.312 Y127.055 E2.9545
G1 X99.268 Y126.510 E2.9608
G1 X99.268 Y125.058 E2.9774
G1 X99.312 Y124.513 E2.9837
G1 X99.377 Y124.116 E2.9883
G1 X99.546 Y123.079 E3.0003
G1 X99.678 Y122.549 E3.0066
G1 X100.140 Y121.172 E3.0232
G1 X100.355 Y120.669 E3.0295
G1 X101.033 Y119.385 E3.0461
G1 X101.326 Y118.923 E3.0524
G1 X102.202 Y117.765 E3.0690
G1 X102.566 Y117.357 E3.0753
G1 X103.618 Y116.355 E3.0919
G92 E0.0000
G1 E-1.5000 F1800
G1 X103.948 Y116.731 F4800
G1 E0.0000 F1800
G92 E0.0000
G1 X104.341 Y116.412 E0.0058 F900
G1 X105.507 Y115.616 E0.0220
G1 X105.947 Y115.365 E0.0278
G1 X107.226 Y114.766 E0.0440
G1 X107.700 Y114.589 E0.0498
G1 X109.059 Y114.205 E0.0659
G1 X109.555 Y114.107 E0.0717
G1 X110.800 Y113.964 E0.0861
G1 X110.917 Y113.531 E0.0912
G1 X111.139 Y112.944 E0.0984
G1 X111.529 Y112.161 E0.1085
G1 X111.766 Y111.763 E0.1138
G1 X112.188 Y111.161 E0.1222
G1 X112.538 Y110.743 E0.1284
G1 X113.122 Y110.160 E0.1379
G1 X113.540 Y109.809 E0.1441
G1 X114.216 Y109.336 E0.1536
G1 X114.688 Y109.063 E0.1599
G1 X115.436 Y108.714 E0.1693
G1 X115.949 Y108.528 E0.1756
G1 X116.746 Y108.314 E0.1850
G1 X117.283 Y108.219 E0.1913
G1 X117.969 Y108.159 E0.1992
G1 X118.242 Y108.147 E0.2023
G1 X172.514 Y108.146 E0.8242
G1 X172.787 Y108.158 E0.8273
G1 X173.473 Y108.218 E0.8352
G1 X174.011 Y108.313 E0.8415
G1 X174.808 Y108.526 E0.8509
G1 X175.321 Y108.713 E0.8572
G1 X176.069 Y109.062 E0.8667
G1 X176.541 Y109.335 E0.8729
G1 X177.218 Y109.808 E0.8824
G1 X177.636 Y110.159 E0.8886
G1 X178.219 Y110.743 E0.8981
G1 X178.570 Y111.161 E0.9043
G1 X179.043 Y111.837 E0.9138
G1 X179.316 Y112.309 E0.9200
G1 X179.665 Y113.057 E0.9295
G1 X179.852 Y113.570 E0.9358
G1 X180.065 Y114.368 E0.9452
G1 X180.160 Y114.905 E0.9515
G1 X180.220 Y115.591 E0.9594
G1 X180.232 Y115.864 E0.9625
G1 X180.231 Y164.178 E1.5161
G1 X180.211 Y164.532 E1.5202
G1 X180.127 Y165.265 E1.5286
G1 X180.040 Y165.720 E1.5340
G1 X179.850 Y166.429 E1.5424
G1 X179.664 Y166.942 E1.5486
G1 X179.315 Y167.690 E1.5581
G1 X179.042 Y168.163 E1.5643
G1 X178.569 Y168.839 E1.5738
G1 X178.218 Y169.257 E1.5800
G1 X177.635 Y169.840 E1.5895
G1 X177.217 Y170.191 E1.5957
G1 X176.541 Y170.664 E1.6052
G1 X176.068 Y170.937 E1.6115
G1 X175.320 Y171.286 E1.6209
G1 X174.808 Y171.472 E1.6272
G1 X174.011 Y171.686 E1.6366
G1 X173.473 Y171.781 E1.6429
G1 X172.787 Y171.841 E1.6508
G1 X172.515 Y171.853 E1.6539
G1 X118.242 Y171.853 E2.2758
G1 X117.969 Y171.841 E2.2789
G1 X117.283 Y171.781 E2.2868
G1 X116.746 Y171.686 E2.2931
G1 X115.949 Y171.472 E2.3025
G1 X115.436 Y171.286 E2.3088
G1 X114.651 Y170.920 E2.3187
G1 X114.111 Y170.598 E2.3259
G1 X113.408 Y170.078 E2.3359
G1 X113.057 Y169.775 E2.3412
G1 X112.538 Y169.256 E2.3497
G1 X112.187 Y168.839 E2.3559
G1 X111.714 Y168.163 E2.3654
G1 X111.441 Y167.690 E2.3716
G1 X111.093 Y166.942 E2.3811
G1 X110.906 Y166.429 E2.3873
G1 X110.692 Y165.632 E2.3968
G1 X110.598 Y165.095 E2.4030
G1 X110.537 Y164.408 E2.4109
G1 X110.526 Y164.134 E2.4141
G1 X110.531 Y150.140 E2.5744
G1 X110.721 Y149.064 E2.5870
G1 X111.137 Y147.922 E2.6009
G1 X111.683 Y146.975 E2.6134
G1 X112.465 Y146.044 E2.6273
G1 X113.303 Y145.341 E2.6399
G1 X113.888 Y145.003 E2.6476
G1 X113.114 Y144.557 E2.6579
G1 X111.822 Y143.264 E2.6788
G1 X110.999 Y141.839 E2.6977
G1 X110.633 Y140.472 E2.7139
G1 X110.526 Y139.660 E2.7233
G1 X110.526 Y137.572 E2.7472
G1 X109.555 Y137.461 E2.7584
G1 X109.059 Y137.363 E2.7642
G1 X107.700 Y136.979 E2.7804
G1 X107.226 Y136.802 E2.7862
G1 X105.947 Y136.203 E2.8023
G1 X105.507 Y135.952 E2.8081
G1 X104.341 Y135.156 E2.8243
G1 X103.948 Y134.837 E2.8301
G1 X102.926 Y133.863 E2.8463
G1 X102.589 Y133.485 E2.8521
G1 X101.737 Y132.359 E2.8683
G1 X101.466 Y131.932 E2.8741
G1 X100.807 Y130.683 E2.8903
G1 X100.607 Y130.218 E2.8961
G1 X100.158 Y128.879 E2.9122
G1 X100.036 Y128.388 E2.9180
G1 X99.809 Y126.994 E2.9342
G1 X99.768 Y126.490 E2.9400
G1 X99.768 Y125.078 E2.9562
G1 X99.809 Y124.573 E2.9620
